svg/teleport.svg

<?xml version="1.0" encoding="UTF-8"?>
<svg width="130px" height="137px" viewBox="0 0 130 137" version="1.1" xmlns="http://www.w3.org/2000/svg" xmlns:xlink="http://www.w3.org/1999/xlink">
    <!-- Generator: Sketch 52.5 (67469) - http://www.bohemiancoding.com/sketch -->
    <title>teleport medallion </title>
    <desc>Created with Sketch.</desc>
    <defs>
        <linearGradient x1="50%" y1="0%" x2="50%" y2="100%" id="linearGradient-1">
            <stop stop-color="#1E2751" offset="0%"></stop>
            <stop stop-color="#0C143D" offset="100%"></stop>
        </linearGradient>
        <linearGradient x1="0%" y1="3.34960937%" x2="100%" y2="100%" id="linearGradient-2">
            <stop stop-color="#3849B5" offset="0%"></stop>
            <stop stop-color="#1A237E" offset="100%"></stop>
        </linearGradient>
        <circle id="path-3" cx="57.5" cy="57.5" r="57.5"></circle>
        <filter x="-7.0%" y="-7.0%" width="113.9%" height="117.4%" filterUnits="objectBoundingBox" id="filter-4">
            <feOffset dx="0" dy="4" in="SourceAlpha" result="shadowOffsetOuter1"></feOffset>
            <feGaussianBlur stdDeviation="2" in="shadowOffsetOuter1" result="shadowBlurOuter1"></feGaussianBlur>
            <feComposite in="shadowBlurOuter1" in2="SourceAlpha" operator="out" result="shadowBlurOuter1"></feComposite>
            <feColorMatrix values="0 0 0 0 0   0 0 0 0 0   0 0 0 0 0  0 0 0 0.24 0" type="matrix" in="shadowBlurOuter1" result="shadowMatrixOuter1"></feColorMatrix>
            <feOffset dx="0" dy="0" in="SourceAlpha" result="shadowOffsetOuter2"></feOffset>
            <feGaussianBlur stdDeviation="2" in="shadowOffsetOuter2" result="shadowBlurOuter2"></feGaussianBlur>
            <feComposite in="shadowBlurOuter2" in2="SourceAlpha" operator="out" result="shadowBlurOuter2"></feComposite>
            <feColorMatrix values="0 0 0 0 0   0 0 0 0 0   0 0 0 0 0  0 0 0 0.12 0" type="matrix" in="shadowBlurOuter2" result="shadowMatrixOuter2"></feColorMatrix>
            <feMerge>
                <feMergeNode in="shadowMatrixOuter1"></feMergeNode>
                <feMergeNode in="shadowMatrixOuter2"></feMergeNode>
            </feMerge>
        </filter>
        <filter x="-106.9%" y="-101.3%" width="313.9%" height="302.6%" filterUnits="objectBoundingBox" id="filter-5">
            <feOffset dx="0" dy="8" in="SourceAlpha" result="shadowOffsetOuter1"></feOffset>
            <feGaussianBlur stdDeviation="16" in="shadowOffsetOuter1" result="shadowBlurOuter1"></feGaussianBlur>
            <feColorMatrix values="0 0 0 0 0   0 0 0 0 0   0 0 0 0 0  0 0 0 0.24 0" type="matrix" in="shadowBlurOuter1" result="shadowMatrixOuter1"></feColorMatrix>
            <feMerge>
                <feMergeNode in="shadowMatrixOuter1"></feMergeNode>
                <feMergeNode in="SourceGraphic"></feMergeNode>
            </feMerge>
        </filter>
        <linearGradient x1="79.3986003%" y1="-85.3981712%" x2="13.4602865%" y2="191.966664%" id="linearGradient-6">
            <stop stop-color="#FFFFFF" offset="0%"></stop>
            <stop stop-color="#FFFFFF" offset="18.2269091%"></stop>
            <stop stop-color="#E8EAF6" stop-opacity="0.24" offset="100%"></stop>
        </linearGradient>
        <filter x="-106.9%" y="-101.3%" width="313.9%" height="302.6%" filterUnits="objectBoundingBox" id="filter-7">
            <feOffset dx="0" dy="8" in="SourceAlpha" result="shadowOffsetOuter1"></feOffset>
            <feGaussianBlur stdDeviation="16" in="shadowOffsetOuter1" result="shadowBlurOuter1"></feGaussianBlur>
            <feColorMatrix values="0 0 0 0 0   0 0 0 0 0   0 0 0 0 0  0 0 0 0.24 0" type="matrix" in="shadowBlurOuter1" result="shadowMatrixOuter1"></feColorMatrix>
            <feMerge>
                <feMergeNode in="shadowMatrixOuter1"></feMergeNode>
                <feMergeNode in="SourceGraphic"></feMergeNode>
            </feMerge>
        </filter>
    </defs>
    <g id="Teleport" stroke="none" stroke-width="1" fill="none" fill-rule="evenodd">
        <g id="Teleport---Login" transform="translate(-656.000000, -43.000000)" fill-rule="nonzero">
            <g id="teleport-medallion-" transform="translate(664.000000, 47.000000)">
                <g id="Oval">
                    <use fill="black" fill-opacity="1" filter="url(#filter-4)" xlink:href="#path-3"></use>
                    <circle stroke="url(#linearGradient-2)" stroke-width="2" stroke-linejoin="square" fill="url(#linearGradient-1)" fill-rule="evenodd" cx="57.5" cy="57.5" r="56.5"></circle>
                </g>
                <g id="gravity/logo/teleport" filter="url(#filter-5)" style="mix-blend-mode: overlay;" transform="translate(21.000000, 19.000000)" fill="url(#linearGradient-6)">
                    <g id="Combined-Shape">
                        <path d="M71.3534712,48.7311731 C71.8725043,49.1021961 72.0586439,49.8069774 71.7996669,50.4005057 C70.3164835,54.9640324 67.7596242,59.3050535 64.6087363,62.9034883 C64.1646985,63.4230287 63.5345206,63.6077301 62.9410316,63.3484999 L53.7861915,60.1578116 C51.5249977,62.0134658 48.9675985,63.497017 46.2251392,64.5728213 L44.4090623,74.0708974 C44.2979179,74.6644257 43.7788845,75.2212301 43.1481674,75.2952187 C40.7769086,75.7407698 38.4040307,76 35.9583159,76 C33.511522,76 31.1397233,75.7402296 28.7679247,75.2952187 C28.1372075,75.2212301 27.6187138,74.6644257 27.5075695,74.0708974 L25.6914926,64.5728213 C22.9490331,63.497017 20.3171783,62.0134658 18.1304404,60.1578116 L8.97560012,63.3484999 C8.38265047,63.6082696 7.75247286,63.4230287 7.30735599,62.9034883 C4.15700748,59.3050535 1.59960868,54.9640324 0.116964802,50.4005057 C-0.142551829,49.8069774 0.0430484231,49.1021961 0.561542153,48.7311731 L7.82531018,42.4248653 C7.56579355,41.0142227 7.49187717,39.4934072 7.49187717,38.0093158 C7.49187717,36.5257646 7.56633307,35.003869 7.82531018,33.5943065 L0.561002614,27.2869187 C0.0425088873,26.9158959 -0.143091365,26.2116546 0.116425267,25.6175861 C1.59906914,21.0545996 4.15646796,16.7135786 7.30681643,13.1151434 C7.75193333,12.5956034 8.38211095,12.410362 8.97506056,12.670132 L18.1299009,15.8602801 C20.3166388,14.0051661 22.9484936,12.5216149 25.6909531,11.4452707 L27.50703,1.94773475 C27.6181743,1.35420626 28.1372075,0.797402013 28.7673851,0.723413475 C33.511522,-0.241137825 38.4034912,-0.241137825 43.1476278,0.723413475 C43.7783452,0.797402013 44.2973783,1.35420626 44.4085231,1.94773475 L46.2240601,11.4447307 C48.9665194,12.5210748 51.5244578,14.004626 53.7851124,15.8597401 L62.9399525,12.669592 C63.5334415,12.4092819 64.1636194,12.5950634 64.6076572,13.1146033 C67.7585451,16.7130386 70.3154044,21.0540595 71.7985878,25.617046 C72.0586439,26.2111146 71.8725043,26.9153558 71.3534712,27.2863786 L64.0891634,33.5937664 C64.3486799,35.003869 64.4225967,36.5252248 64.4225967,38.008776 C64.4225967,39.4928673 64.3486799,41.0142227 64.0891634,42.4243255 L71.3534712,48.7311731 Z M36,62.509742 C49.541628,62.509742 60.5191354,51.5362734 60.5191354,38 C60.5191354,24.4637266 49.541628,13.490258 36,13.490258 C22.458372,13.490258 11.4808646,24.4637266 11.4808646,38 C11.4808646,51.5362734 22.458372,62.509742 36,62.509742 Z M36,59.4174103 C24.1674265,59.4174103 14.5750795,49.8285924 14.5750795,38 C14.5750795,26.1714076 24.1674265,16.5825897 36,16.5825897 C47.8325735,16.5825897 57.4249205,26.1714076 57.4249205,38 C57.4249205,49.8285924 47.8325735,59.4174103 36,59.4174103 Z M24.0059509,28 L24.0059509,34.0021515 L33.0029755,34.0021515 L33.0029755,49.0081635 L40,49.0081635 L40,34.0021515 L49.0039062,34.0021515 L49.0039062,28 L24.0059509,28 Z"></path>
                    </g>
                </g>
                <g id="gravity/logo/teleport" filter="url(#filter-7)" opacity="0.44077846" style="mix-blend-mode: overlay;" transform="translate(21.000000, 19.000000)" fill="url(#linearGradient-6)">
                    <g id="Combined-Shape">
                        <path d="M71.3534712,48.7311731 C71.8725043,49.1021961 72.0586439,49.8069774 71.7996669,50.4005057 C70.3164835,54.9640324 67.7596242,59.3050535 64.6087363,62.9034883 C64.1646985,63.4230287 63.5345206,63.6077301 62.9410316,63.3484999 L53.7861915,60.1578116 C51.5249977,62.0134658 48.9675985,63.497017 46.2251392,64.5728213 L44.4090623,74.0708974 C44.2979179,74.6644257 43.7788845,75.2212301 43.1481674,75.2952187 C40.7769086,75.7407698 38.4040307,76 35.9583159,76 C33.511522,76 31.1397233,75.7402296 28.7679247,75.2952187 C28.1372075,75.2212301 27.6187138,74.6644257 27.5075695,74.0708974 L25.6914926,64.5728213 C22.9490331,63.497017 20.3171783,62.0134658 18.1304404,60.1578116 L8.97560012,63.3484999 C8.38265047,63.6082696 7.75247286,63.4230287 7.30735599,62.9034883 C4.15700748,59.3050535 1.59960868,54.9640324 0.116964802,50.4005057 C-0.142551829,49.8069774 0.0430484231,49.1021961 0.561542153,48.7311731 L7.82531018,42.4248653 C7.56579355,41.0142227 7.49187717,39.4934072 7.49187717,38.0093158 C7.49187717,36.5257646 7.56633307,35.003869 7.82531018,33.5943065 L0.561002614,27.2869187 C0.0425088873,26.9158959 -0.143091365,26.2116546 0.116425267,25.6175861 C1.59906914,21.0545996 4.15646796,16.7135786 7.30681643,13.1151434 C7.75193333,12.5956034 8.38211095,12.410362 8.97506056,12.670132 L18.1299009,15.8602801 C20.3166388,14.0051661 22.9484936,12.5216149 25.6909531,11.4452707 L27.50703,1.94773475 C27.6181743,1.35420626 28.1372075,0.797402013 28.7673851,0.723413475 C33.511522,-0.241137825 38.4034912,-0.241137825 43.1476278,0.723413475 C43.7783452,0.797402013 44.2973783,1.35420626 44.4085231,1.94773475 L46.2240601,11.4447307 C48.9665194,12.5210748 51.5244578,14.004626 53.7851124,15.8597401 L62.9399525,12.669592 C63.5334415,12.4092819 64.1636194,12.5950634 64.6076572,13.1146033 C67.7585451,16.7130386 70.3154044,21.0540595 71.7985878,25.617046 C72.0586439,26.2111146 71.8725043,26.9153558 71.3534712,27.2863786 L64.0891634,33.5937664 C64.3486799,35.003869 64.4225967,36.5252248 64.4225967,38.008776 C64.4225967,39.4928673 64.3486799,41.0142227 64.0891634,42.4243255 L71.3534712,48.7311731 Z M36,62.509742 C49.541628,62.509742 60.5191354,51.5362734 60.5191354,38 C60.5191354,24.4637266 49.541628,13.490258 36,13.490258 C22.458372,13.490258 11.4808646,24.4637266 11.4808646,38 C11.4808646,51.5362734 22.458372,62.509742 36,62.509742 Z M36,59.4174103 C24.1674265,59.4174103 14.5750795,49.8285924 14.5750795,38 C14.5750795,26.1714076 24.1674265,16.5825897 36,16.5825897 C47.8325735,16.5825897 57.4249205,26.1714076 57.4249205,38 C57.4249205,49.8285924 47.8325735,59.4174103 36,59.4174103 Z M24.0059509,28 L24.0059509,34.0021515 L33.0029755,34.0021515 L33.0029755,49.0081635 L40,49.0081635 L40,34.0021515 L49.0039062,34.0021515 L49.0039062,28 L24.0059509,28 Z"></path>
                    </g>
                </g>
            </g>
        </g>
    </g>
</svg>

<svg xmlns="http://www.w3.org/2000/svg" xmlns:xlink="http://www.w3.org/1999/xlink" width="130" height="137"><defs><linearGradient id="c" x1="50%" x2="50%" y1="0%" y2="100%"><stop offset="0%" stop-color="#1E2751"/><stop offset="100%" stop-color="#0C143D"/></linearGradient><linearGradient id="d" x1="0%" x2="100%" y1="3.35%" y2="100%"><stop offset="0%" stop-color="#3849B5"/><stop offset="100%" stop-color="#1A237E"/></linearGradient><linearGradient id="e" x1="79.399%" x2="13.46%" y1="-85.398%" y2="191.967%"><stop offset="0%" stop-color="#FFF"/><stop offset="18.227%" stop-color="#FFF"/><stop offset="100%" stop-color="#E8EAF6" stop-opacity=".24"/></linearGradient><filter id="b" width="113.9%" height="117.4%" x="-7%" y="-7%" filterUnits="objectBoundingBox"><feOffset dy="4" in="SourceAlpha" result="shadowOffsetOuter1"/><feGaussianBlur in="shadowOffsetOuter1" result="shadowBlurOuter1" stdDeviation="2"/><feComposite in="shadowBlurOuter1" in2="SourceAlpha" operator="out" result="shadowBlurOuter1"/><feColorMatrix in="shadowBlurOuter1" result="shadowMatrixOuter1" values="0 0 0 0 0 0 0 0 0 0 0 0 0 0 0 0 0 0 0.24 0"/><feOffset in="SourceAlpha" result="shadowOffsetOuter2"/><feGaussianBlur in="shadowOffsetOuter2" result="shadowBlurOuter2" stdDeviation="2"/><feComposite in="shadowBlurOuter2" in2="SourceAlpha" operator="out" result="shadowBlurOuter2"/><feColorMatrix in="shadowBlurOuter2" result="shadowMatrixOuter2" values="0 0 0 0 0 0 0 0 0 0 0 0 0 0 0 0 0 0 0.12 0"/><feMerge><feMergeNode in="shadowMatrixOuter1"/><feMergeNode in="shadowMatrixOuter2"/></feMerge></filter><filter id="f" width="313.9%" height="302.6%" x="-106.9%" y="-101.3%" filterUnits="objectBoundingBox"><feOffset dy="8" in="SourceAlpha" result="shadowOffsetOuter1"/><feGaussianBlur in="shadowOffsetOuter1" result="shadowBlurOuter1" stdDeviation="16"/><feColorMatrix in="shadowBlurOuter1" result="shadowMatrixOuter1" values="0 0 0 0 0 0 0 0 0 0 0 0 0 0 0 0 0 0 0.24 0"/><feMerge><feMergeNode in="shadowMatrixOuter1"/><feMergeNode in="SourceGraphic"/></feMerge></filter><filter id="g" width="313.9%" height="302.6%" x="-106.9%" y="-101.3%" filterUnits="objectBoundingBox"><feOffset dy="8" in="SourceAlpha" result="shadowOffsetOuter1"/><feGaussianBlur in="shadowOffsetOuter1" result="shadowBlurOuter1" stdDeviation="16"/><feColorMatrix in="shadowBlurOuter1" result="shadowMatrixOuter1" values="0 0 0 0 0 0 0 0 0 0 0 0 0 0 0 0 0 0 0.24 0"/><feMerge><feMergeNode in="shadowMatrixOuter1"/><feMergeNode in="SourceGraphic"/></feMerge></filter><circle id="a" cx="57.5" cy="57.5" r="57.5"/></defs><g fill="none"><g transform="translate(8 4)"><use xlink:href="#a" fill="#000" filter="url(#b)"/><circle cx="57.5" cy="57.5" r="56.5" fill="url(#c)" fill-rule="evenodd" stroke="url(#d)" stroke-linejoin="square" stroke-width="2"/></g><g fill="url(#e)" filter="url(#f)" style="mix-blend-mode:overlay" transform="translate(29 23)"><path d="M71.353 48.731c.52.371.706 1.076.447 1.67-1.484 4.563-4.04 8.904-7.191 12.502-.444.52-1.074.705-1.668.445l-9.155-3.19a28.065 28.065 0 0 1-7.56 4.415l-1.817 9.498c-.111.593-.63 1.15-1.26 1.224-2.372.446-4.745.705-7.19.705-2.447 0-4.82-.26-7.191-.705-.63-.074-1.15-.63-1.26-1.224l-1.817-9.498c-2.742-1.076-5.374-2.56-7.56-4.415l-9.155 3.19c-.593.26-1.224.075-1.669-.445-3.15-3.598-5.707-7.939-7.19-12.502a1.381 1.381 0 0 1 .445-1.67l7.263-6.306c-.26-1.41-.333-2.932-.333-4.416 0-1.483.074-3.005.333-4.415L.561 27.287a1.381 1.381 0 0 1-.445-1.67c1.483-4.562 4.04-8.903 7.19-12.502.446-.52 1.076-.705 1.67-.445l9.154 3.19c2.187-1.855 4.818-3.338 7.561-4.415l1.816-9.497c.111-.594.63-1.15 1.26-1.225a36.094 36.094 0 0 1 14.38 0c.631.074 1.15.631 1.262 1.225l1.815 9.497a28.085 28.085 0 0 1 7.561 4.415l9.155-3.19c.593-.26 1.224-.075 1.668.445 3.15 3.598 5.707 7.94 7.19 12.502a1.38 1.38 0 0 1-.445 1.67l-7.264 6.307c.26 1.41.334 2.931.334 4.415s-.074 3.005-.334 4.415l7.264 6.307ZM36 62.51c13.542 0 24.52-10.974 24.52-24.51 0-13.536-10.978-24.51-24.52-24.51S11.48 24.464 11.48 38c0 13.536 10.978 24.51 24.52 24.51Zm0-3.093c-11.833 0-21.425-9.588-21.425-21.417 0-11.829 9.592-21.417 21.425-21.417S57.425 26.17 57.425 38c0 11.829-9.592 21.417-21.425 21.417ZM24.006 28v6.002h8.997v15.006H40V34.002h9.004V28H24.006Z"/></g><g fill="url(#e)" filter="url(#g)" opacity=".441" style="mix-blend-mode:overlay" transform="translate(29 23)"><path d="M71.353 48.731c.52.371.706 1.076.447 1.67-1.484 4.563-4.04 8.904-7.191 12.502-.444.52-1.074.705-1.668.445l-9.155-3.19a28.065 28.065 0 0 1-7.56 4.415l-1.817 9.498c-.111.593-.63 1.15-1.26 1.224-2.372.446-4.745.705-7.19.705-2.447 0-4.82-.26-7.191-.705-.63-.074-1.15-.63-1.26-1.224l-1.817-9.498c-2.742-1.076-5.374-2.56-7.56-4.415l-9.155 3.19c-.593.26-1.224.075-1.669-.445-3.15-3.598-5.707-7.939-7.19-12.502a1.381 1.381 0 0 1 .445-1.67l7.263-6.306c-.26-1.41-.333-2.932-.333-4.416 0-1.483.074-3.005.333-4.415L.561 27.287a1.381 1.381 0 0 1-.445-1.67c1.483-4.562 4.04-8.903 7.19-12.502.446-.52 1.076-.705 1.67-.445l9.154 3.19c2.187-1.855 4.818-3.338 7.561-4.415l1.816-9.497c.111-.594.63-1.15 1.26-1.225a36.094 36.094 0 0 1 14.38 0c.631.074 1.15.631 1.262 1.225l1.815 9.497a28.085 28.085 0 0 1 7.561 4.415l9.155-3.19c.593-.26 1.224-.075 1.668.445 3.15 3.598 5.707 7.94 7.19 12.502a1.38 1.38 0 0 1-.445 1.67l-7.264 6.307c.26 1.41.334 2.931.334 4.415s-.074 3.005-.334 4.415l7.264 6.307ZM36 62.51c13.542 0 24.52-10.974 24.52-24.51 0-13.536-10.978-24.51-24.52-24.51S11.48 24.464 11.48 38c0 13.536 10.978 24.51 24.52 24.51Zm0-3.093c-11.833 0-21.425-9.588-21.425-21.417 0-11.829 9.592-21.417 21.425-21.417S57.425 26.17 57.425 38c0 11.829-9.592 21.417-21.425 21.417ZM24.006 28v6.002h8.997v15.006H40V34.002h9.004V28H24.006Z"/></g></g></svg>
